!!!COM: Palestrina, Giovanni Perluigi da
!!!OPR: Missa In festis Apostolorum (I)
!!!OMD: Sanctus
!!!OTL: First Section
**kern	**kern	**kern	**kern	**kern
*Ibass	*Itenor	*Itenor	*Icalto	*Icant
!Bassus	!Tenor 2	!Tenor 1	!Altus	!Cantus
*clefF4	*clefGv2	*clefGv2	*clefG2	*clefG2
*k[]	*k[]	*k[]	*k[]	*k[]
*D:dor	*D:dor	*D:dor	*D:dor	*D:dor
*M4/2	*M4/2	*M4/2	*M4/2	*M4/2
=1	=1	=1	=1	=1
0r	2.D	0r	0r	0d
.	4E	.	.	.
.	2F	.	.	.
.	2G	.	.	.
=2	=2	=2	=2	=2
0r	2F	0r	2.A	0a
.	2D	.	.	.
.	.	.	4B	.
.	2A	.	2c	.
.	2D	.	2d	.
=3	=3	=3	=3	=3
0r	1.A	0r	2c	1.cc
.	.	.	2A	.
.	.	.	[1e	.
.	4G	.	.	4b
.	4F	.	.	4a
=4	=4	=4	=4	=4
0r	1.E	0r	2e]	2.g
.	.	.	4d	.
.	.	.	4c	4f
.	.	.	2B	2g
.	2F#	.	2A	2a
=5	=5	=5	=5	=5
0r	2G	0r	2B	2g
.	2D	.	1d	2f
.	1A	.	.	1e
.	.	.	2c#	.
=6	=6	=6	=6	=6
0r	2.F	0D	2.d	1d
.	4G	.	4e	.
.	4A	.	1f	2.a
.	4D	.	.	.
.	2d	.	.	.
.	.	.	.	4b
=7	=7	=7	=7	=7
2.AA	2.c	0A	1.e	2cc
.	.	.	.	2c
4BB	4B	.	.	.
2C	4A	.	.	2e
.	4G	.	.	.
2D	2F	.	2d	2f
=8	=8	=8	=8	=8
2C	2E	1.c	1.e	2g
2AA	2.E	.	.	2a
[1E	.	.	.	1g
.	4F	.	.	.
.	[2G	4B	4d	.
.	.	4A	4c	.
=9	=9	=9	=9	=9
2E]	4G]	2G	2B	2r
.	4E	.	.	.
4D	2A	2F	1d	2a
4C	.	.	.	.
2BB	2D	2G	.	2b
2AA	[2E	2A	2c	[2cc
=10	=10	=10	=10	=10
2C	2E]	2G	2e	2cc]
2D	2.A	2F	1d	2a
1AA	.	1E	.	1a
.	4G	.	.	.
.	2E	.	2c#	.
=11	=11	=11	=11	=11
[0D	[0F#	[0D	[0d	[0a
=12	=12	=12	=12	=12
0D]	0F#]	0D]	0d]	0a]
=13	=13	=13	=13	=13
0r	0r	1A	0r	0r
.	.	1B	.	.
=14	=14	=14	=14	=14
1D	0r	2A	0r	0r
.	.	1d	.	.
1E	.	.	.	.
.	.	2c	.	.
=15	=15	=15	=15	=15
1D	0r	2B	1r	0r
.	.	2A	.	.
[1G	.	[1B	1d	.
=16	=16	=16	=16	=16
2G]	0r	2B]	1e	0r
4F	.	4A	.	.
4E	.	4G	.	.
2F	.	2A	1d	.
2G	.	[2d	.	.
=17	=17	=17	=17	=17
1E	1r	2d]	1.g	0r
.	.	2c#	.	.
1D	1A	1d	.	.
.	.	.	2f	.
=18	=18	=18	=18	=18
1G	1B	0r	2e	0r
.	.	.	1d	.
2F	1A	.	.	.
[2A	.	.	2c	.
=19	=19	=19	=19	=19
2A]	1.d	1r	1B	0r
2G#	.	.	.	.
1A	.	2r	2A	.
.	4c	[2A	[2e	.
.	4B	.	.	.
=20	=20	=20	=20	=20
0r	2c	2A]	2e]	1a
.	2d	1d	2f#	.
.	1G	.	1g	1b
.	.	4c	.	.
.	.	4B	.	.
=21	=21	=21	=21	=21
0r	2A	2c	2e	1a
.	2D	2d	1a	.
.	2r	1B	.	[1dd
.	2d	.	2g#	.
=22	=22	=22	=22	=22
0r	2f	0A	1a	2dd]
.	2.e	.	.	4cc
.	.	.	.	4b
.	.	.	2.e	2cc
.	4d	.	.	.
.	4c	.	.	[2a
.	4B	.	4d	.
=23	=23	=23	=23	=23
0r	1A	1r	2c#	4a]
.	.	.	.	4g
.	.	.	1d	2f
.	1r	2.A	.	1e
.	.	.	2c#	.
.	.	4A	.	.
=24	=24	=24	=24	=24
2.D	0r	2A	1d	1.f
.	.	1d	.	.
4D	.	.	.	.
2D	.	.	2.A	.
[2A	.	[2c	.	2e
.	.	.	4A	.
=25	=25	=25	=25	=25
2A]	0r	2c]	2A	2f
2G	.	2B	1d	2g
2.F	.	2.A	.	[1a
.	.	.	2c	.
4E	.	4G	.	.
=26	=26	=26	=26	=26
2D	2.A	2F	2d	0a]
2C	.	2E	2e	.
.	4A	.	.	.
2.D	2A	4D	[1f	.
.	.	4E	.	.
.	[2d	4F	.	.
4E	.	4G	.	.
=27	=27	=27	=27	=27
4F	2d]	1A	2f]	0r
4G	.	.	.	.
1A	2c	.	4e	.
.	.	.	4d	.
.	2B	1E	2.e	.
2G#	2B	.	.	.
.	.	.	4d	.
=28	=28	=28	=28	=28
2.A	1.A	1e	4c	1r
.	.	.	4B	.
.	.	.	1c	.
4G	.	.	.	.
2F	.	1r	.	2.d
[2G	4G	.	2B	.
.	4A	.	.	4d
=29	=29	=29	=29	=29
2G]	4B	0r	2G	2d
.	4c	.	.	.
2F	2d	.	2A	1a
1E	1e	.	2B	.
.	.	.	2e	2g
=30	=30	=30	=30	=30
2F	0r	2.A	2.c	2f
2C	.	.	.	2e
.	.	4A	8d	.
.	.	.	8e	.
[1D	.	2A	[1f	2.d
.	.	[2d	.	.
.	.	.	.	4e
=31	=31	=31	=31	=31
2D]	2r	2d]	2f]	4f
.	.	.	.	4g
2AA	2.e	2c	2e	1a
1E	.	2B	2r	.
.	4e	.	.	.
.	2e	2B	[2e	2g#
=32	=32	=32	=32	=32
2.AA	2.c	0A	4e]	2a
.	.	.	4e	.
.	.	.	2e	1cc
4AA	4d	.	.	.
2AA	2e	.	2.a	.
[2D	2f	.	.	2a
.	.	.	4g	.
=33	=33	=33	=33	=33
2D]	2d	0r	2f	4b-
.	.	.	.	4a
2C	2.e	.	2e	1a
2BB-	.	.	2f	.
.	4d	.	.	.
2BB-	[2d	.	2d	2g
=34	=34	=34	=34	=34
1AA	2d]	1r	1e	2a
.	2c#	.	.	2.a
[1F	2d	2.D	[1d	.
.	.	.	.	4a
.	[2A	.	.	2a
.	.	4D	.	.
=35	=35	=35	=35	=35
2F]	4A]	2D	1d]	1dd
.	4A	.	.	.
2D	2A	1A	.	.
1E	2e	.	2r	2cc
.	2B	2G	[2e	[2b
=36	=36	=36	=36	=36
0r	2c	2F	2e]	4b]
.	.	.	.	4a
.	2A	2F	2d	1a
.	1B	1E	1e	.
.	.	.	.	2g#
=37	=37	=37	=37	=37
2.AA	[0A	2r	1.c#	[0a
.	.	1E	.	.
4AA	.	.	.	.
2AA	.	.	.	.
[2D	.	2F	2d	.
=38	=38	=38	=38	=38
2D]	0A]	2D	2f	0a]
2C#	.	2E	2e	.
2D	.	1F	1d	.
2D	.	.	.	.
=39	=39	=39	=39	=39
[0AA	[0A	[0E	[0c#	[0a
=40	=40	=40	=40	=40
0AA]	0A]	0E]	0c#]	0a]
*-	*-	*-	*-	*-
!!!CDT: 1525/^1526/-1594/2/2
!!!OCY: Italia
!!!AGN: Mass (Paraphrase)
!!!AST: renaissance, vocal
!!!ASW: Gregorian Mass
!!!PWK: Masses, Book Mantuan II
!!!RNB: Cadence finals: A,E
!!!YOR: Le Opere Complete, v. 19, p. 43
!!!YOO: Rome, Italy: Fratelli Scalera
!!!END: 1992//
!!!EED: John Miller
!!!YEC: Copyright 2000, John Miller
!!!YEN: United States of America
!!!YEM: Rights to all derivative electronic formats reserved.
!!!YEM: Refer to licensing agreement for further details.
!!!YEM: This file must be accompanied by the licensing agreement.
!!!YEM: A copy of the licensing agreement may be found at http://www.music-cog.ohio-state.edu/HumdrumDatabases/Palestrina/license.txt
!!!EMD: converted to Humdrum by Bret Aarden
